!!!COM:	Bach, Johann Sebastian
!!!CDT:	1685/02/21/-1750/07/28/
!!!OTL@@DE:	Lobt Gott, ihr Christen allzugleich
!!!SCT:	BWV 151/5
!!!PC#:	54
!!!AGN:	chorale
**kern	**kern	**kern	**kern
*ICvox	*ICvox	*ICvox	*ICvox
*Ibass	*Itenor	*Ialto	*Isoprn
*I"Bass	*I"Tenor	*I"Alto	*I"Soprano
*	*oclefC4	*oclefC3	*oclefC1
*clefF4	*clefGv2	*clefG2	*clefG2
*k[f#]	*k[f#]	*k[f#]	*k[f#]
*G:	*G:	*G:	*G:
*M4/4	*M4/4	*M4/4	*M4/4
*met(c)	*met(c)	*met(c)	*met(c)
*MM100	*MM100	*MM100	*MM100
4G	4B	4d	4g
=1	=1	=1	=1
4F#	4A	8dL	4dd
.	.	8eJ	.
4D	8dL	4f#	4dd
.	8cJ	.	.
8GL	8BL	4g	4dd
8AJ	8cJ	.	.
4B	4d	4g	4dd
=2	=2	=2	=2
4C	8cL	4g	4ee
.	8BJ	.	.
4D	8AL	4f#	8ddL
.	8dJ	.	8ccJ
4G;	4d;	4g;	4b;
4F#	4d	4a	4a
=3	=3	=3	=3
4E	4G	4g	8bL
.	.	.	8cc#J
4D	4A	4f#	4dd
4G	4B	8eL	4ee
.	.	8f#J	.
4A	4c#	4g	4ee
=4	=4	=4	=4
2D;	2A;	2f#;	2dd;
4r	4ry	4ry	4r
4F#	8dL	4a	4dd
.	8cnXJ	.	.
=5	=5	=5	=5
4G	4B	4g	4dd
4A	4c	4f#	4dd
4B	4d	4g	4dd
4E	4e	4g	8bL
.	.	.	8ccJ
=6	=6	=6	=6
4BB	4d	4g	4dd
4C	4e	8aL	8ccL
.	.	8gJ	8bJ
4D;	4A;	4f#;	4a;
4BB	4B	4f#	4dd
=7	=7	=7	=7
8EL	8BL	8g	4cc
8F#J	8A	4a	.
4G	8B	.	4b
.	8cJ	[8g	.
4D	4d	8gL]	4a
.	.	8eJ	.
4D#	4c	4f#	4a
=8	=8	=8	=8
8EL	4B	2g	8gL
8F#	.	.	8a
8G	4e	.	8b
8AJ	.	.	8ccJ
4B;	4d;	4f#;	4dd;
4G	4B	4g	4dd
=9	=9	=9	=9
4E	8cL	4g	4cc
.	8dJ	.	.
8DL	4e	4g	8bL
8CJ	.	.	8aJ
4D	4d	4g	4b
4D	8dL	4f#	4a
.	8cJ	.	.
=10	=10	=10	=10
2.GG;	2.B;	2.d;	2.g;
==	==	==	==
*-	*-	*-	*-
!!!YOR1: 371 vierstimmige Choralges&auml;nge von Johann Sebastian Bach, 
!!!YOR2: 4th ed. by Alfred D&ouml;rffel (Leipzig: Breitkopf und H&auml;rtel, 
!!!YOR2: c.1875). 178 pp. Plate "V.A.10".  reprint: J.S. Bach, 371 Four-Part 
!!!YOR4: Chorales (New York: Associated Music Publishers, Inc., c.1940).
!!!SMS: B&H, 4th ed, Alfred D&ouml;rffel, c.1875, plate V.A.10
!!!EED:  Craig Stuart Sapp
!!!EEV:  2009/05/22
